X: 1
T: Lapp-Nisses polska
T: Sl\"angpolska fr\aan En\aanger/Bjur\aaker
O: efter Bengt Jonsson
S: Bengt Jonsson
R: polska, mazurka
%Q: 1/4=126
M: 3/4
L: 1/8
K: A
|: "A"E>A A>A A>e | f>e c4 | E>A A>A A>e | "Bm"f>e d4 \
| "E7"E>G G>B B>e | g2 g4 | "D"a>f d>f d>f | "A"fe c4 :|
|: "A"e2 f>e c>B | A>c c>c c>c | "E7"B>B B>B B>B |1,3 "A"c>c c>c c>c :|2,4 "A"A2 A4 :|
|: "D"~a>g a2 f2 | "(Bm)"~d>c d2 B2 | "E7"E>G B>[eE] G>B |1,3 "A"A>B c<d e2 :|2,4 "A"A2 A4 :|

%%sep 1 1 500

